X:7303
T:the Royal Review
O:england
R:Slip jig
M:9/8
L:1/8
K:D
a2f faf b2g | g2e efd cBA | \
a2f faf b2g | faf gec d3 :|
|:FGA AFA BGB | g2e efd cBA |\
FGA AFA B2g | faf gec d3 :|


